src/sources/forus-platform/resources/_platform-common/assets/img/menu/icon-my_funds.svg

<svg xmlns="http://www.w3.org/2000/svg" width="30" height="30" viewBox="-5 -4.5 30 30"><path fill="#8CA3A6" d="M19.3 9.9c-.2-.2-.6-.2-.8 0-.2.2-.2.6 0 .8.2.2.3.5.3.8 0 .7-.6 1.2-1.2 1.2-.3-2.6-2.1-4.8-4.699-5.5-.2 1.9-1.801 3.4-3.8 3.2C7.3 10.3 6 8.8 5.9 7 5.1 6.2 4.1 5.7 3 5.7c-.4 0-.6.3-.6.6v.1l.4 2.7c-.7.7-1.1 1.6-1.4 2.5-.8.2-1.4.9-1.4 1.7v1.2c0 1 .8 1.8 1.8 1.8h.1c.4.8 1 1.5 1.6 2v2.1c0 .3.3.6.6.6h2.3c.3 0 .6-.3.6-.6v-.7c.2 0 .4.1.6.1h2.9v.6c0 .3.3.6.6.6h2.3c.3 0 .6-.3.6-.6v-1.3c2-1 3.3-3 3.5-5.199 1.3 0 2.4-1 2.4-2.301.1-.6-.1-1.2-.6-1.7zM4.1 12.8c-.3 0-.6-.3-.6-.6s.3-.6.6-.6.6.301.6.601-.2.599-.6.599zm7.1 0H7.7c-.3 0-.6-.3-.6-.6s.3-.6.6-.6h3.5c.3 0 .6.301.6.601s-.3.599-.6.599zM9.4 4.6c-1.3 0-2.3 1-2.3 2.3 0 1.3 1 2.3 2.3 2.3 1.3 0 2.3-1 2.3-2.3.1-1.3-1-2.3-2.3-2.3zM14.1 1c-1.3 0-2.3 1-2.3 2.3 0 1.3 1 2.3 2.3 2.3 1.301 0 2.301-1 2.301-2.3C16.4 2.1 15.4 1 14.1 1z"/><path fill="#134478" d="M10.4 4.8c-2-.8-3.8.9-3.3 2.8.3.7.9 1.4 1.7 1.6 1.6.4 3-.8 3-2.3.001-.9-.499-1.8-1.4-2.1zm4.7-3.6c-2-.8-3.799.9-3.299 2.8.199.8.799 1.4 1.599 1.6 1.6.4 3-.8 3-2.3 0-.9-.5-1.7-1.3-2.1z"/></svg>

<?xml version="1.0" encoding="utf-8"?>
<!DOCTYPE svg PUBLIC "-//W3C//DTD SVG 1.1//EN" "http://www.w3.org/Graphics/SVG/1.1/DTD/svg11.dtd">
<svg version="1.1" id="Layer_1" xmlns="http://www.w3.org/2000/svg" xmlns:xlink="http://www.w3.org/1999/xlink" x="0px" y="0px"
	 width="30px" height="30px" viewBox="-5 -4.5 30 30" enable-background="new -5 -4.5 30 30" xml:space="preserve">
<path fill="#8CA3A6" d="M19.3,9.9c-0.2-0.2-0.6-0.2-0.8,0c-0.2,0.2-0.2,0.6,0,0.8c0.2,0.2,0.3,0.5,0.3,0.8c0,0.7-0.6,1.2-1.2,1.2
	c-0.3-2.6-2.1-4.8-4.699-5.5c-0.2,1.9-1.801,3.4-3.8,3.2C7.3,10.3,6,8.8,5.9,7C5.1,6.2,4.1,5.7,3,5.7C2.6,5.7,2.4,6,2.4,6.3v0.1
	l0.4,2.7c-0.7,0.7-1.1,1.6-1.4,2.5C0.6,11.8,0,12.5,0,13.3v1.2c0,1,0.8,1.8,1.8,1.8h0.1c0.4,0.8,1,1.5,1.6,2V20.4
	c0,0.3,0.3,0.6,0.6,0.6h2.3C6.7,21,7,20.7,7,20.4v-0.7c0.2,0,0.4,0.1,0.6,0.1h2.9V20.4c0,0.3,0.3,0.6,0.6,0.6H13.4
	c0.3,0,0.6-0.3,0.6-0.6V19.1c2-1,3.3-3,3.5-5.199c1.3,0,2.4-1,2.4-2.301C20,11,19.8,10.4,19.3,9.9z M4.1,12.8
	c-0.3,0-0.6-0.3-0.6-0.6S3.8,11.6,4.1,11.6c0.3,0,0.6,0.301,0.6,0.601S4.5,12.8,4.1,12.8z M11.2,12.8H7.7c-0.3,0-0.6-0.3-0.6-0.6
	S7.4,11.6,7.7,11.6h3.5c0.3,0,0.6,0.301,0.6,0.601S11.5,12.8,11.2,12.8z M9.4,4.6c-1.3,0-2.3,1-2.3,2.3c0,1.3,1,2.3,2.3,2.3
	c1.3,0,2.3-1,2.3-2.3C11.8,5.6,10.7,4.6,9.4,4.6z M14.1,1c-1.3,0-2.3,1-2.3,2.3c0,1.3,1,2.3,2.3,2.3c1.301,0,2.301-1,2.301-2.3
	C16.4,2.1,15.4,1,14.1,1z"/>
<path fill="#134478" d="M10.4,4.8C8.4,4,6.6,5.7,7.1,7.6C7.4,8.3,8,9,8.8,9.2c1.6,0.4,3-0.8,3-2.3C11.801,6,11.301,5.1,10.4,4.8z
	 M15.1,1.2c-2-0.8-3.799,0.9-3.299,2.8C12,4.8,12.6,5.4,13.4,5.6c1.6,0.4,3-0.8,3-2.3C16.4,2.4,15.9,1.6,15.1,1.2z"/>
</svg>
